X: 28992
T: Naughton's
R: reel
M: 4/4
K: Gmajor
G|:EA (3AAA Bded|BG (3GGG BGAG|EA (3AAA Bdef|gedB BAAG|
EA (3AAA Bded|BG (3GGG BGAG|EA (3AAA Bdef|gedB BAAG:|
|:a3 a aged|Bdef g2 eg|a3 a agef|gedB BA A2|
a3 a aged|Bdef g3 a|ba (3aaa agef|gedB BA A2:|

